!!!!SEGMENT: s-uu--vok-mus-i-hs-22-16_forster-kaspar--silentio-mortali-tacete-le-labbra.krn
!!!cenid: 16xx:1675
!!!COM: Förster, Kaspar
!!!COM-rismid: pe30006147
!!!CDT:
!!!CNT:
!!!OTL: Silentio mortali tacete le labbra
!!!PDT: 1690
!!!AGN:
!!!SMS-siglum: S-Uu
!!!SMS-shelfmark: Vok. mus. i hs. 22:16
!!!SMS-shelfwork: W
!!!SMS-variant:
!!!SMS-altvar:
!!!NIFC-rismid: 190008738
!!!URL-scan: https://www2.musik.uu.se/duben/presentationSource1.php?Select_Dnr=859
!!!ONB-nifc: UWAGA: poszczególne partie dostępne po kliknięciu w „browse part”. Informacje nt stron tytułowych w opisie na stronie lub na RISM.
!!!key:
**kern	**text	**text	**dynam	**kern	**text	**text	**dynam	**kern	**text	**text	**dynam
*part3	*part3	*part3	*part3	*part2	*part2	*part2	*part2	*part1	*part1	*part1	*part1
*staff3	*staff3	*staff3	*	*staff2	*staff2	*staff2	*	*staff1	*staff1	*staff1	*
*I"Basso.	*	*	*	*I"Canto 2.do	*	*	*	*I"Canto. i.	*	*	*
*I'B	*	*	*	*I'S 2	*	*	*	*I'S 1	*	*	*
*Ibass	*	*	*	*Isoprn	*	*	*	*Isoprn	*	*	*
*ICvox	*	*	*	*ICvox	*	*	*	*ICvox	*	*	*
*clefC4	*	*	*	*clefC1	*	*	*	*clefC1	*	*	*
*k[b-]	*	*	*	*k[b-]	*	*	*	*k[b-]	*	*	*
*F:	*	*	*	*F:	*	*	*	*F:	*	*	*
*M3/2	*	*	*	*M3/2	*	*	*	*M3/2	*	*	*
=1-	=1-	=1-	=1-	=1-	=1-	=1-	=1-	=1-	=1-	=1-	=1-
*all\right	*	*	*	*all\right	*	*	*	*all\right	*	*	*
*2\right	*	*	*	*2\right	*	*	*	*2\right	*	*	*
!LO:TX:a:t=a.3. C.C.B. di Gasp&colon; Forster	!	!	!	!LO:TX:a:t=a3. C.C.B. di Sig&colon; Gasp&colon; Forster.	!	!	!	!LO:TX:a:t=a.3. C.C.B. Gasp&colon; Forster.	!	!	!
2r	.	.	.	2r	.	.	.	2r	.	.	.
2r	.	.	.	2r	.	.	.	2r	.	.	.
!LO:TX:t=P:problem:kreska pseudotaktowa	!	!	!	!LO:TX:t=P:problem:kreska pseudotaktowa	!	!	!	!	!	!	!
2F/	Si-	.	.	2a\	Si-	.	.	2cc\	Si-	.	.
1.F	-len-	.	.	1.a	-len-	.	.	1.cc	-len-	.	.
=2-	=2-	=2-	=2-	=2-	=2-	=2-	=2-	=2-	=2-	=2-	=2-
!LO:TX:t=P:problem:kreska pseudotaktowa	!	!	!	!LO:TX:t=P:problem:kreska pseudotaktowa	!	!	!	!LO:TX:t=P:problem:kreska pseudotaktowa	!	!	!
1.F	-tio	.	.	1.a	-tio	.	.	1.cc	-tio	.	.
2r	.	.	.	2r	.	.	.	2r	.	.	.
2r	.	.	.	2r	.	.	.	2r	.	.	.
*	*	*	*	*	*ij	*	*	*	*	*	*
!LO:TX:t=P:problem:kreska pseudotaktowa	!	!	!	!LO:TX:t=P:problem:kreska pseudotaktowa	!	!	!	!LO:TX:t=P:problem:kreska pseudotaktowa	!	!	!
2f\	si-	.	.	2a\	Si-	.	.	2cc\	si-	.	.
=3-	=3-	=3-	=3-	=3-	=3-	=3-	=3-	=3-	=3-	=3-	=3-
2d\	-len-	.	.	2f/	-len-	.	.	2dd\	-len-	.	.
!	!	!	!	!	!	!	!	!LO:N:acc=#:global	!	!	!
2.d\	-tio	.	.	2.f/	-tio	.	.	2.bn\	-tio	.	.
*	*	*	*	*	*Xij	*	*	*	*	*	*
!LO:TX:t=P:problem:kreska pseudotaktowa	!	!	!	!LO:TX:t=P:problem:kreska pseudotaktowa	!	!	!	!LO:TX:t=P:problem:kreska pseudotaktowa	!	!	!
4d\	mor-	.	.	4f/	mor-	.	.	4cc\	mor-	.	.
2c\	-ta-	.	.	2e/	-ta-	.	.	2cc\	-ta-	.	.
2c\	-li	.	.	2e/	-li	.	.	2cc\	-li	.	.
!LO:TX:t=P:problem:kreska pseudotaktowa	!	!	!	!LO:TX:t=P:problem:kreska pseudotaktowa	!	!	!	!LO:TX:t=P:problem:kreska pseudotaktowa	!	!	!
2C/	ta-	.	.	2r	.	.	.	2r	.	.	.
=4-	=4-	=4-	=4-	=4-	=4-	=4-	=4-	=4-	=4-	=4-	=4-
1.C	-cet-	.	.	2r	.	.	.	2r	.	.	.
.	.	.	.	2r	.	.	.	2r	.	.	.
!	!	!	!	!LO:TX:t=P:problem:kreska pseudotaktowa	!	!	!	!LO:TX:t=P:problem:kreska pseudotaktowa	!	!	!
.	.	.	.	2g/	ta-	.	.	2ee\	ta-	.	.
1C	-te	.	.	2g/	-ce-	.	.	2ee\	-ce-	.	.
.	.	.	.	2e/	-te	.	.	2cc\	-te	.	.
4r	.	.	.	4r	.	.	.	4r	.	.	.
!LO:TX:t=P:problem:kreska pseudotaktowa	!	!	!	!LO:TX:t=P:problem:kreska pseudotaktowa	!	!	!	!LO:TX:t=P:problem:kreska pseudotaktowa	!	!	!
4c\	le	.	.	4g/	le	.	.	4cc\	le	.	.
=5-	=5-	=5-	=5-	=5-	=5-	=5-	=5-	=5-	=5-	=5-	=5-
2d\	la-	.	.	2f#X/	la-	.	.	2cc\	la-	.	.
2.d\	-bra	.	.	2.f#/	-bra	.	.	2.cc\	-bra	.	.
!LO:TX:t=P:problem:kreska pseudotaktowa	!	!	!	!LO:TX:t=P:problem:kreska pseudotaktowa	!	!	!	!LO:TX:t=P:problem:kreska pseudotaktowa	!	!	!
4D/	chiu-	.	.	4f#/	chiu-	.	.	4b-y\	chiu-	.	.
2G/	-de-	.	.	2g/	-de-	.	.	2b-\	-de-	.	.
2G/	-te	.	.	2g/	-te	.	.	2b-\	-te	.	.
*col	*	*	*	*	*	*	*	*	*	*	*
!	!	!	!	!LO:TX:t=P:problem:kreska pseudotaktowa	!	!	!	!	!	!	!
1G/	dor-	.	.	[2b-\	dor-	.	.	2r	.	.	.
*Xcol	*	*	*	*	*	*	*	*	*	*	*
!	!	!	!	!	!	!	!	!LO:LB:g=original	!	!	!
=6-	=6-	=6-	=6-	=6-	=6-	=6-	=6-	=6-	=6-	=6-	=6-
.	.	.	.	2b-\]	.	.	.	1.r	.	.	.
2.F#X/	-mail	.	.	2.a\	-mail	.	.	.	.	.	.
4E/	pen-	.	.	4g/	pen-	.	.	.	.	.	.
!LO:LB:g=original	!	!	!	!	!	!	!	!	!	!	!
1D	-sie-	.	.	2f#X/	-sie-	.	.	2dd\	dor-	.	.
.	.	.	.	4e/	.	.	.	2.cc\	-mail	.	.
!	!	!	!	!LO:TX:t=P:problem:# below	!	!	!	!	!	!	!
.	.	.	.	4f#X/	.	.	.	.	.	.	.
!LO:TX:t=P:problem:kreska pseudotaktowa	!	!	!	!LO:TX:t=P:problem:kreska pseudotaktowa	!	!	!	!	!	!	!
2D/	-ro	.	.	2g/	.	.	.	.	.	.	.
!	!	!	!	!	!	!	!	!LO:TX:t=P:problem:kreska pseudotaktowa	!	!	!
.	.	.	.	.	.	.	.	4b-\	pen-	.	.
=7-	=7-	=7-	=7-	=7-	=7-	=7-	=7-	=7-	=7-	=7-	=7-
!	!	!	!	!LO:TX:t=P:problem:# below	!	!	!	!	!	!	!
2d\	e	.	.	1.f#X	-ro	.	.	1a	-sie-	.	.
2.c\	dor-	.	.	.	.	.	.	.	.	.	.
.	.	.	.	.	.	.	.	2a\	-ro 	.	.
4d\	-man	.	.	.	.	.	.	.	.	.	.
1.B-	se-	.	.	2b-\	e	.	.	2dd\	e	.	.
.	.	.	.	2.cc\	dor-	.	.	2.ee\	dor-	.	.
!	!	!	!	!LO:TX:t=P:problem:kreska pseudotaktowa	!	!	!	!LO:TX:t=P:problem:kreska pseudotaktowa	!	!	!
.	.	.	.	4dd\	-man	.	.	4ff\	-man	.	.
=8-	=8-	=8-	=8-	=8-	=8-	=8-	=8-	=8-	=8-	=8-	=8-
1c	-co	.	.	2cc\	se-	.	.	2ee-X\	se-	.	.
.	.	.	.	2a\	-co	.	.	2cc\	-co	.	.
!LO:TX:t=P:problem:kreska pseudotaktowa	!	!	!	!LO:TX:t=P:problem:kreska pseudotaktowa	!	!	!	!LO:TX:t=P:problem:kreska pseudotaktowa	!	!	!
2c\	il	.	.	2g/	i	.	.	2b-\	i	.	.
(2d\	ma-	.	.	1g	ma-	.	.	(2b-\	ma-	.	.
!	!	!	!	!	!	!	!	!LO:TX:t=P:problem:kreska pseudotaktowa	!	!	!
1D)	.	.	.	.	.	.	.	1a)	.	.	.
!	!	!	!	!LO:TX:t=P:problem:kreska pseudotaktowa	!	!	!	!	!	!	!
.	.	.	.	(2f#X/	-li	.	.	.	.	.	.
=9-	=9-	=9-	=9-	=9-	=9-	=9-	=9-	=9-	=9-	=9-	=9-
[>1.G	-li	.	.	2g/)	.	.	.	2g/	-li	.	.
!	!	!	!	!LO:TX:t=P:problem:kreska pseudotaktowa	!	!	!	!LO:TX:t=P:problem:kreska pseudotaktowa	!	!	!
.	.	.	.	[1cc	dor-	.	.	1.ee-X	dor-	.	.
1.G]	.	.	.	2cc\]	.	.	.	.	.	.	.
!	!	!	!	!LO:N:acc=#:global	!	!	!	!	!	!	!
.	.	.	.	2.bn\	-mail	.	.	2.dd\	-mail	.	.
!	!	!	!	!LO:TX:t=P:problem:kreska pseudotaktowa	!	!	!	!LO:TX:t=P:problem:kreska pseudotaktowa	!	!	!
.	.	.	.	4a\	pen-	.	.	4cc\	pen-	.	.
=10-	=10-	=10-	=10-	=10-	=10-	=10-	=10-	=10-	=10-	=10-	=10-
!	!	!	!	!LO:TX:t=P:problem:# above	!	!	!	!	!	!	!
!	!	!	!	!LO:N:acc=#	!	!	!	!	!	!	!
2G/	r	.	.	1bn	-sie-	.	.	1dd	-sie-	.	.
2.Fny/	dor-	.	.	.	.	.	.	.	.	.	.
!	!	!	!	!LO:TX:t=P:problem:kreska pseudotaktowa	!	!	!	!	!	!	!
.	.	.	.	2b\	-ro	.	.	2dd\	-ro e	.	.
!LO:TX:t=P:problem:kreska pseudotaktowa	!	!	!	!	!	!	!	!	!	!	!
4G/	-man	.	.	.	.	.	.	.	.	.	.
2E-X/	se-	.	.	2g/	e	.	.	2ee-X\	dor-	.	.
1F	-co	.	.	2.fny/	dor-	.	.	2.dd\	-man	.	.
!	!	!	!	!LO:TX:t=P:problem:kreska pseudotaktowa	!	!	!	!LO:SIC:v:t=custos bn	!	!	!
.	.	.	.	4e-X/	-man	.	.	4cc\	se-	.	.
!	!	!	!	!	!	!	!	!LO:LB:g=original	!	!	!
=11-	=11-	=11-	=11-	=11-	=11-	=11-	=11-	=11-	=11-	=11-	=11-
!	!	!	!	!	!	!	!	!LO:N:acc=#	!	!	!
2G/	se-	.	.	2d/	se-	.	.	2bn\	-co	.	.
2G/	-co	.	.	2d/	-co	.	.	2b\	i	.	.
*col	*	*	*	*col	*	*	*	*	*	*	*
1F	i	.	.	1d	i	.	.	1cc	.	.	.
!	!	!	!	!LO:SIC:v:t=custos c	!	!	!	!	!	!	!
1G	ma-	.	.	1d	ma-	.	.	2.cc\	ma-	.	.
!	!	!	!	!	!	!	!	!LO:N:acc=#	!	!	!
!	!	!	!	!	!	!	!	!LO:TX:t=P:problem:# above	!	!	!
.	.	.	.	.	.	.	.	(4bn\	-li	.	.
*Xcol	*	*	*	*Xcol	*	*	*	*	*	*	*
!LO:LB:g=original	!	!	!	!LO:LB:g=original	!	!	!	!	!	!	!
=12-	=12-	=12-	=12-	=12-	=12-	=12-	=12-	=12-	=12-	=12-	=12-
2C/	-li	.	.	2c/	-li	.	.	2cc\)	.	.	.
2r	.	.	.	2r	.	.	.	2r	.	.	.
!LO:TX:t=P:problem:kreska pseudotaktowa	!	!	!	!LO:TX:t=P:problem:kreska pseudotaktowa	!	!	!	!	!	!	!LO:DY:b:t=pian
!	!	!	!LO:DY:a:t=pian	!	!	!	!LO:DY:a:t=piano	!LO:TX:t=P:problem:kreska pseudotaktowa	!	!	!
2C/	si-	.	p	2cc\	si-	.	p	2ee-X\	si-	.	p
2F/	-len-	.	.	2a\	-len-	.	.	2ee-\	-len-	.	.
2F/	-tio	.	.	2a\	-tio	.	.	2ee-\	-tio	.	.
!	!	!	!	!	!	!	!	!	!	!	!LO:DY:b:t=p.p
4r	.	.	.	4r	.	.	.	4r	.	.	pp
*	*ij	*	*	*	*	*	*	*	*	*	*
!LO:TX:t=P:problem:kreska pseudotaktowa	!	!	!LO:DY:a:t=p.p.	!LO:TX:t=P:problem:kreska pseudotaktowa	!	!	!LO:DY:a:t=pp.	!	!	!	!
4F/	si-	.	pp	4a\	si-	.	pp	4dd\	si-	.	.
=13-	=13-	=13-	=13-	=13-	=13-	=13-	=13-	=13-	=13-	=13-	=13-
2B-\	-len-	.	.	2b-y\	-len-	.	.	2dd\	-len-	.	.
2B-\	-tio	.	.	2b-\	-ti	.	.	2dd\	-tio	.	.
4r	.	.	.	4r	.	.	.	4r	.	.	.
*	*	*	*	*	*ij	*	*	*	*	*	*
!LO:TX:t=P:problem:kreska pseudotaktowa	!	!	!LO:DY:a:t=f.	!LO:TX:t=P:problem:kreska pseudotaktowa	!	!	!	!LO:TX:t=P:problem:kreska pseudotaktowa	!	!	!
4B-\	si-	.	f	4b-\	si-	.	.	4dd\	si-	.	.
2c\	-len-	.	.	2a\	-len-	.	.	2cc\	-len-	.	.
2c\	-tio	.	.	2a\	-ti	.	.	2cc\	-tio	.	.
!LO:TX:t=P:problem:kreska pseudotaktowa	!	!	!	!LO:TX:t=P:problem:kreska pseudotaktowa	!	!	!	!	!	!	!
*	*Xij	*	*	*	*Xij	*	*	*col**Xcol	*	*	*
[2c\	mor-	.	.	[2g/	mor-	.	.	1b-\	mor-	.	.
=14-	=14-	=14-	=14-	=14-	=14-	=14-	=14-	=14-	=14-	=14-	=14-
2c\]	.	.	.	2g/]	.	.	.	.	.	.	.
!LO:TX:t=P:problem:kreska pseudotaktowa	!	!	!	!	!	!	!	!	!	!	!
1d	-ta-	.	.	2.g/	-ta-	.	.	(2.b-\	-ta-	.	.
!	!	!	!	!LO:TX:t=P:problem:kreska pseudotaktowa	!	!	!	!LO:TX:t=P:problem:kreska pseudotaktowa	!	!	!
.	.	.	.	(4f#X/	-li	.	.	4a\)	.	.	.
2G/	-li	.	.	2g/)	.	.	.	2g/	-li	.	.
2r	.	.	.	2r	.	.	.	2r	.	.	.
!	!	!	!	!	!	!	!	!LO:TX:t=P:problem:kreska pseudotaktowa	!	!	!
!	!	!	!	!	!	!	!	!LO:SIC:v:t=custos b	!	!	!
!LO:TX:t=P:problem:kreska pseudotaktowa	!	!	!	!LO:TX:t=P:problem:kreska pseudotaktowa	!	!	!	!	!	!	!LO:DY:a:t=p.
2G/	si-	.	.	2g/	si-	.	.	2b-\	si-	.	p
!	!	!	!	!	!	!	!	!LO:LB:g=original	!	!	!
=15-	=15-	=15-	=15-	=15-	=15-	=15-	=15-	=15-	=15-	=15-	=15-
2c\	-len-	.	.	2eny/	-len-	.	.	2b-\	-len-	.	.
2c\	-tio	.	.	2e/	-tio	.	.	2b-\	-tio	.	.
4r	.	.	.	4r	.	.	.	4r	.	.	.
*	*	*	*	*	*ij	*	*	*	*	*	*
!LO:SIC:v:t=custos F	!	!	!	!	!	!	!	!	!	!	!
!LO:TX:t=P:problem:kreska pseudotaktowa	!	!	!	!LO:TX:t=P:problem:kreska pseudotaktowa	!	!	!	!LO:TX:t=P:problem:kreska pseudotaktowa	!	!	!
4c\	si-	.	.	4e/	si-	.	.	4a-X\	si-	.	.
!LO:LB:g=original	!	!	!	!	!	!	!	!	!	!	!
2F/	-len-	.	.	2fny/	-len-	.	.	2a-\	-len-	.	.
2F/	-tio	.	.	2f/	-tio	.	.	2a-\	-tio	.	.
4r	.	.	.	4r	.	.	.	4r	.	.	.
!LO:TX:t=P:problem:kreska pseudotaktowa	!	!	!	!LO:TX:t=P:problem:kreska pseudotaktowa	!	!	!	!LO:TX:t=P:problem:kreska pseudotaktowa	!	!	!
*	*	*	*	*	*	*	*	*	*ij	*	*
4F/	si-	.	.	4a\	si-	.	.	4cc\	si-	.	.
=16-	=16-	=16-	=16-	=16-	=16-	=16-	=16-	=16-	=16-	=16-	=16-
2BB-/	-len-	.	.	2b-\	-len-	.	.	2dd-X\	-len-	.	.
2.BB-/	-tio	.	.	2g/	-tio	.	.	2b-\	-tio	.	.
*	*	*	*	*	*Xij	*	*	*	*Xij	*	*
!	!	!	!	!	!	!	!	!LO:TX:t=P:problem:kreska pseudotaktowa	!	!	!
.	.	.	.	2f/	mor-	.	.	2a-X\	mor-	.	.
4BB-/	si-	.	.	.	.	.	.	.	.	.	.
!	!	!	!	!LO:LB:g=original	!	!	!	!	!	!	!
1.C	-len-	.	.	(1f	-ta-	.	.	(2a-\	-ta-	.	.
.	.	.	.	.	.	.	.	1g)	.	.	.
.	.	.	.	2e/)	.	.	.	.	.	.	.
=17-	=17-	=17-	=17-	=17-	=17-	=17-	=17-	=17-	=17-	=17-	=17-
1.F	-tio	.	.	1.f	-li	.	.	1.f	-li	.	.
=:||:	=||	=||	=||	=:||:	=||	=||	=:|:	=:|:	=:|:	=||	=||
2f\	le	Le	.	2a\	le	le	.	2cc\	le	le	.
2d\	cu-	no-	.	2b-\	cu-	no-	.	2dd\	cu-	no-	.
!LO:TX:t=P:problem:kreska pseudotaktowa	!	!	!	!LO:TX:t=P:problem:kreska pseudotaktowa	!	!	!	!LO:TX:t=P:problem:kreska pseudotaktowa	!	!	!
2e\	-re	-ie	.	2b-\	-re	-ie	.	2dd\	-re	-ie	.
=18-	=18-	=18-	=18-	=18-	=18-	=18-	=18-	=18-	=18-	=18-	=18-
2.f\	tor-	fug-	.	2.a\	tor-	fug-	.	2.cc\	tor-	fug-	.
4f\	-bi-	-go-	.	4g/	-bi-	-go-	.	4b-\	-bi-	-go-	.
!LO:TX:t=P:problem:kreska pseudotaktowa	!	!	!	!LO:TX:t=P:problem:kreska pseudotaktowa	!	!	!	!	!	!	!
2f\	-de	-no	.	2f/	-de	-no	.	2a\	-de	-no	.
!	!	!	!	!	!	!	!	!LO:LB:g=original	!	!	!
2f\	da	sil	.	2a\	da	sil	.	2cc\	da	sil	.
!	!	!	!	!LO:N:acc=#	!	!	!	!	!	!	!
2.d\	noi	so-	.	2bn\	noi	so-	.	2dd\	noi	so-	.
!	!	!	!	!LO:TX:t=P:problem:kreska pseudotaktowa	!	!	!	!LO:TX:t=P:problem:kreska pseudotaktowa	!	!	!
.	.	.	.	2b\	di-	-gno	.	2dd\	di-	-gno	.
!LO:TX:t=P:problem:kreska pseudotaktowa	!	!	!	!	!	!	!	!	!	!	!
4d\	di-	-gno	.	.	.	.	.	.	.	.	.
=19-	=19-	=19-	=19-	=19-	=19-	=19-	=19-	=19-	=19-	=19-	=19-
1c	-scol-	ap-	.	2.cc\	-sciol-	ap-	.	2.ee\	-sciol-	ap-	.
!	!	!	!	!LO:N:acc=#	!	!	!	!	!	!	!
.	.	.	.	(4bn\	-te	-pa-	.	(4dd\	-te	-pa-	.
!LO:SIC:v:t=custos A	!	!	!	!LO:TX:t=P:problem:kreska pseudotaktowa	!	!	!	!LO:TX:t=P:problem:kreska pseudotaktowa	!	!	!
2c\	-te	-parue	.	2cc\)	.	-rue	.	2ee\)	.	-rue	.
!LO:LB:g=original	!	!	!	!	!	!	!	!	!	!	!
2A/	fra	e	.	2cc\	fra	e	.	2ff\	fra	e	.
2B-\	piu	si	.	2f/	piu	si-	.	2dd\	piu	si-	.
!LO:TX:t=P:problem:kreska pseudotaktowa	!	!	!	!LO:TX:t=P:problem:kreska pseudotaktowa	!	!	!	!LO:TX:t=P:problem:kreska pseudotaktowa	!	!	!
2G/	me	di	.	2g/	me	-di	.	2ee\	me	-di	.
=20-	=20-	=20-	=20-	=20-	=20-	=20-	=20-	=20-	=20-	=20-	=20-
2.A/	mor-	strug-	.	2.e/	mor-	strug-	.	2.cc#X\	mor-	strug-	.
4A/	-bi-	-go-	.	4e/	-bi-	-ga-	.	4cc#\	-bi-	-ga-	.
!LO:TX:t=P:problem:kreska pseudotaktowa	!	!	!	!LO:SIC:v:t=custos f	!	!	!	!LO:TX:t=P:problem:kreska pseudotaktowa	!	!	!
2A/	-de	-no	.	2e/	-de	-no	.	2cc#\	-de	-no	.
!	!	!	!	!LO:LB:g=original	!	!	!	!	!	!	!
2D/	res-	fra	.	2f/	ros-	fra	.	2a\	ros-	fra	.
2.BB-/	-tin	mil-	.	2.d/	-tin	mil-	.	2.a\	-tin	mil-	.
!	!	!	!	!LO:TX:t=P:problem:kreska pseudotaktowa	!	!	!	!LO:TX:t=P:problem:kreska pseudotaktowa	!	!	!
4BB-/	se-	-le	.	4e/	se-	-le	.	4g/	se-	-le	.
=21-	=21-	=21-	=21-	=21-	=21-	=21-	=21-	=21-	=21-	=21-	=21-
1AA	-pol-	lar-	.	1c#X	-pol-	lar-	.	1a	-pol-	lar-	.
!LO:TX:t=P:problem:kreska pseudotaktowa	!	!	!	!LO:TX:t=P:problem:kreska pseudotaktowa	!	!	!	!LO:TX:t=P:problem:kreska pseudotaktowa	!	!	!
2AA/	-te	-ve	.	2c#/	-te	-ve	.	2a\	-te	-ve	.
2A/	le	le	.	2e/	le	le	.	2cc#X\	le	le	.
2d\	cu-	no-	.	2f/	cu-	no-	.	2dd\	cu-	no-	.
!LO:TX:t=P:problem:kreska pseudotaktowa	!	!	!	!LO:TX:t=P:problem:kreska pseudotaktowa	!	!	!	!	!	!	!
!	!	!	!	!	!	!	!	!LO:N:acc=#	!	!	!
2G/	-re	-ie	.	2f/	-re	-ie	.	2bn\	-re	-ie	.
!	!	!	!	!	!	!	!	!LO:LB:g=original	!	!	!
=22-	=22-	=22-	=22-	=22-	=22-	=22-	=22-	=22-	=22-	=22-	=22-
2.c\	tor-	fug-	.	2.e/	tor-	fug-	.	2.ccny\	tor-	fug-	.
4c\	-bi-	-go-	.	4e/	-bi-	-go-	.	4cc\	-bi-	-go-	.
!LO:TX:t=P:problem:kreska pseudotaktowa	!	!	!	!LO:TX:t=P:problem:kreska pseudotaktowa	!	!	!	!LO:TX:t=P:problem:kreska pseudotaktowa	!	!	!
2c\	-de	-no,	.	2e/	-de	-no,	.	2cc\	-de	-no,	.
2c\	da	sil	.	2e/	da	sil	.	2g/	da	sil	.
2A/	noi	so-	.	2a\	noi	so-	.	2cc\	noi	sog-	.
!LO:SIC:v:t=custos G	!	!	!	!LO:TX:t=P:problem:# below	!	!	!	!LO:TX:t=P:problem:kreska pseudotaktowa	!	!	!
2d\	dis-	-gno ap-	.	2f#X/	dis-	-gno	.	2a\	dis-	-no	.
!LO:LB:g=original	!	!	!	!	!	!	!	!	!	!	!
=23-	=23-	=23-	=23-	=23-	=23-	=23-	=23-	=23-	=23-	=23-	=23-
!	!	!	!	!	!	!	!	!LO:N:acc=#	!	!	!
1G	-sciol-	-pa-	.	1g	-cial-	ap-	.	1bn	-cial-	ap-	.
!LO:TX:t=P:problem:kreska pseudotaktowa	!	!	!	!LO:TX:t=P:problem:kreska pseudotaktowa	!	!	!	!	!	!	!
2G/	-te	-rue	.	2g/	-te	-pa-	.	2b\	-te	-pa-	.
2E/	fra	e	.	2g/	fra	-rue	.	2ee\	fra	-rue	.
2A/	piu	si	.	2fny/	piu	e	.	2cc\	piu	si	.
!LO:TX:t=P:problem:kreska pseudotaktowa	!	!	!	!LO:TX:t=P:problem:kreska pseudotaktowa	!	!	!	!LO:TX:t=P:problem:kreska pseudotaktowa	!	!	!
2B-\	me	di-	.	2f/	me	si	.	2dd\	me	di-	.
=24-	=24-	=24-	=24-	=24-	=24-	=24-	=24-	=24-	=24-	=24-	=24-
2.c\	mor-	-strug-	.	2.e/	mor-	di-	.	2.g/	mor-	-strug-	.
4c\	-bi-	-go-	.	4e/	-bi-	-strug-	.	4g/	-bi-	-go-	.
!LO:TX:t=P:problem:kreska pseudotaktowa	!	!	!	!LO:SIC:v:t=custos e	!	!	!	!LO:TX:t=P:problem:kreska pseudotaktowa	!	!	!
2c\	-de	-no	.	2e/	-de	-gono	.	2g/	-de	-no	.
!	!	!	!	!LO:LB:g=original	!	!	!	!	!	!	!
2E/	res-	fra	.	2e/	ros-	fra	.	2cc\	re-	fra	.
2F/	-tin	mil-	.	2.d/	-tin	mil-	.	2.cc\	-stin	mil-	.
!LO:TX:t=P:problem:kreska pseudotaktowa	!	!	!	!	!	!	!	!	!	!	!
2G/	se-	-le	.	.	.	.	.	.	.	.	.
!	!	!	!	!	!	!	!	!LO:TX:t=P:problem:kreska pseudotaktowa	!	!	!
!	!	!	!	!LO:TX:t=P:problem:kreska pseudotaktowa	!	!	!	!LO:TX:t=P:problem:# above	!	!	!
!	!	!	!	!	!	!	!	!LO:N:acc=#	!	!	!
.	.	.	.	4d/	se-	-le	.	4bn\	se-	-le	.
=25-	=25-	=25-	=25-	=25-	=25-	=25-	=25-	=25-	=25-	=25-	=25-
2C/	-pol-	lar-	.	2e/	-pol-	lar-	.	2cc\	-pol-	lar-	.
2C/	-te	-ve,	.	2e/	-te	-ve	.	2cc\	-te	-re	.
!LO:TX:t=P:problem:niewyraźny zapis 1. tekstu	!	!	!	!	!	!	!	!	!	!	!
!LO:TX:t=P:problem:kreska pseudotaktowa	!	!	!	!	!	!	!	!	!	!	!
2c\	Su-	le	.	2r	.	.	.	2r	.	.	.
2f\	-ri-	pe-	.	1.r	.	.	.	1.r	.	.	.
2.f\	-ta	-ne	.	.	.	.	.	.	.	.	.
!LO:TX:t=P:problem:kreska pseudotaktowa	!	!	!	!	!	!	!	!	!	!	!
4f\	ra-	piu	.	.	.	.	.	.	.	.	.
=26-	=26-	=26-	=26-	=26-	=26-	=26-	=26-	=26-	=26-	=26-	=26-
2e\	-sa-	fie-	.	1.r	.	.	.	2r	.	.	.
2.e\	-le	-re	.	.	.	.	.	2r	.	.	.
!	!	!	!	!	!	!	!	!LO:SIC:v:t=custos ff	!	!	!
.	.	.	.	.	.	.	.	2cc\	su-	le	.
4e\	di	se	.	.	.	.	.	.	.	.	.
!LO:LB:g=original	!	!	!	!	!	!	!	!LO:LB:g=original	!	!	!
2d\	.	.	.	2r	.	.	.	2ff\	-ri-	pe-	.
2.d\	.	.	.	2r	.	.	.	2ff\	-ta	-ne	.
!	!	!	!	!LO:TX:t=P:problem:kreska pseudotaktowa	!	!	!	!LO:TX:t=P:problem:kreska pseudotaktowa	!	!	!
.	.	.	.	2f/	su-	le	.	2ff\	ras-	più	.
!LO:TX:t=P:problem:kreska pseudotaktowa	!	!	!	!	!	!	!	!	!	!	!
4d\	.	.	.	.	.	.	.	.	.	.	.
=27-	=27-	=27-	=27-	=27-	=27-	=27-	=27-	=27-	=27-	=27-	=27-
2c\	.	.	.	2cc\	-ri-	pe-	.	2ee\	-sa-	fie-	.
2c\	.	.	.	2.cc\	-ta	-ne	.	2.ee\	-le	-re-	.
!LO:TX:t=P:problem:kreska pseudotaktowa	!	!	!	!	!	!	!	!	!	!	!
2c\	.	.	.	.	.	.	.	.	.	.	.
!	!	!	!	!LO:TX:t=P:problem:kreska pseudotaktowa	!	!	!	!LO:TX:t=P:problem:kreska pseudotaktowa	!	!	!
.	.	.	.	4cc\	ras-	più	.	4ee\	di-	-se	.
2F/	.	.	.	2a\	-sa-	fie-	.	2ff\	-ma-	ven-	.
2F/	.	.	.	2a\	-le	-re	.	2ff\	-li	-gon	.
!	!	!	!	!LO:TX:t=P:problem:kreska pseudotaktowa	!	!	!	!LO:TX:t=P:problem:kreska pseudotaktowa	!	!	!
2F/	.	.	.	2a\	di-	se	.	2dd\	la	u-	.
=28-	=28-	=28-	=28-	=28-	=28-	=28-	=28-	=28-	=28-	=28-	=28-
1.B-X	.	.	.	2a\	-ma-	ven-	.	2dd\	tor-	-ni-	.
.	.	.	.	2a\	-li	-gon	.	2.dd\	-na	-te	.
!	!	!	!	!LO:TX:t=P:problem:kreska pseudotaktowa	!	!	!	!	!	!	!
.	.	.	.	2g/	la	u-	.	.	.	.	.
!	!	!	!	!	!	!	!	!LO:TX:t=P:problem:kreska pseudotaktowa	!	!	!
.	.	.	.	.	.	.	.	4ee\	si	se	.
1A	.	.	.	2a\	tor-	-ni-	.	2cc#X\	dor-	ven-	.
.	.	.	.	2a\	-na	-te,	.	2cc#\	-ma	-gon	.
!	!	!	!	!	!	!	!	!LO:TX:t=P:problem:kreska pseudotaktowa	!	!	!
!	!	!	!	!LO:TX:t=P:problem:kreska pseudotaktowa	!	!	!	!	!	!	!LO:DY:a:t=p.
2A/	.	.	.	2c#X/	si	dor-	.	2e/	si	u-	p
=29-	=29-	=29-	=29-	=29-	=29-	=29-	=29-	=29-	=29-	=29-	=29-
1.AA	.	.	.	1.d	dor-	-mi-	.	1.f	dor-	-ni-	.
2AA/	.	.	.	2c#X/	-ma	-te	.	2e/	-ma	-te	.
2r	.	.	.	2r	.	.	.	2r	.	.	.
!LO:TX:t=P:problem:kreska pseudotaktowa	!	!	!	!LO:TX:t=P:problem:kreska pseudotaktowa	!	!	!	!LO:TX:t=P:problem:kreska pseudotaktowa	!	!	!LO:DY:a:t=pp.
2A/	.	.	.	2c#/	si	dor-	.	2e/	si	dor-	pp
=30-	=30-	=30-	=30-	=30-	=30-	=30-	=30-	=30-	=30-	=30-	=30-
!LO:SIC:v:t=custos A	!	!	!	!	!	!	!	!	!	!	!
1.A	.	.	.	1.d	dor-	-mi-	.	1.f	dor-	-mi-	.
!LO:LB:g=original	!	!	!	!LO:LB:g=original	!	!	!	!	!	!	!
2A/	.	.	.	2c#X/	-ma	-te	.	2e/	-ma	-te	.
2r	.	.	.	2r	.	.	.	2r	.	.	.
!LO:TX:t=P:problem:kreska pseudotaktowa	!	!	!	!LO:TX:t=P:problem:kreska pseudotaktowa	!	!	!	!	!	!	!LO:DY:a:t=forte
2F/	.	.	.	2f/	si	dor-	.	2a\	si	dor-	f
!	!	!	!	!	!	!	!	!LO:LB:g=original	!	!	!
=31-	=31-	=31-	=31-	=31-	=31-	=31-	=31-	=31-	=31-	=31-	=31-
2G/	.	.	.	4e/	dor-	-mi-	.	4g/	dor-	-mi-	.
.	.	.	.	4d/	.	.	.	4f/	.	.	.
!LO:TX:t=P:problem:kreska pseudotaktowa	!	!	!	!LO:TX:t=P:problem:kreska pseudotaktowa	!	!	!	!LO:TX:t=P:problem:kreska pseudotaktowa	!	!	!
1A	.	.	.	1c#X	.	.	.	1e	-ma,	-te	.
1d	.	.	.	1d	-ma	-te	.	1f	.	.	.
!LO:TX:t=P:problem:kreska pseudotaktowa	!	!	!	!LO:TX:t=P:problem:kreska pseudotaktowa	!	!	!	!LO:TX:t=P:problem:kreska pseudotaktowa	!	!	!
2d\	.	.	.	2dd\	le	fra	.	2ff\	le	fra	.
=32-	=32-	=32-	=32-	=32-	=32-	=32-	=32-	=32-	=32-	=32-	=32-
2f\	.	.	.	2a\	va-	l'om-	.	2ccny\	va-	l'o-	.
2.f\	.	.	.	2.a\	-ste	-bre	.	2.cc\	-ste	-bre	.
!LO:TX:t=P:problem:kreska pseudotaktowa	!	!	!	!LO:TX:t=P:problem:kreska pseudotaktowa	!	!	!	!LO:TX:t=P:problem:kreska pseudotaktowa	!	!	!
4f\	.	.	.	4a\	scia-	del	.	4cc\	scia-	de	.
2B-\	.	.	.	2b-y\	-gu-	son-	.	2dd\	-gu-	son-	.
4B-\	.	.	.	2.b-\	-re	-no	.	2.dd\	-re	-no	.
4c\	.	.	.	.	.	.	.	.	.	.	.
4B-\	.	.	.	.	.	.	.	.	.	.	.
!LO:TX:t=P:problem:kreska pseudotaktowa	!	!	!	!LO:TX:t=P:problem:kreska pseudotaktowa	!	!	!	!LO:TX:t=P:problem:kreska pseudotaktowa	!	!	!
4c\	.	.	.	4b-\	s'at-	dif-	.	4dd\	s'at-	dif-	.
=33-	=33-	=33-	=33-	=33-	=33-	=33-	=33-	=33-	=33-	=33-	=33-
2d\	.	.	.	2f/	-taf-	-fen-	.	2a\	-taf-	-fen-	.
2.d\	.	.	.	(4f/	-fin	-der-	.	(4a\	-fin	-der	.
.	.	.	.	4g/)	.	.	.	4b-y\)	.	.	.
.	.	.	.	(4f/	si	-si	.	(4a\	si	si	.
!LO:TX:t=P:problem:kreska pseudotaktowa	!	!	!	!LO:TX:t=P:problem:kreska pseudotaktowa	!	!	!	!LO:TX:t=P:problem:kreska pseudotaktowa	!	!	!
4d\	.	.	.	4g/)	.	.	.	4b-\)	.	.	.
2A/	.	.	.	2a\	pu-	puon-	.	2cc\	pu-	puon-	.
2A/	.	.	.	2a\	-re	-no	.	2cc\	-re	-no	.
!LO:SIC:v:t=custos e	!	!	!	!LO:TX:t=P:problem:kreska pseudotaktowa	!	!	!	!	!	!	!
2f\	.	.	.	2a\	nes	i	.	2r	.	.	.
!LO:PB:g=original	!	!	!	!	!	!	!	!	!	!	!
=34-	=34-	=34-	=34-	=34-	=34-	=34-	=34-	=34-	=34-	=34-	=34-
!LO:TX:t=P:problem:dalej brak źródła	!	!	!	!	!	!	!	!LO:SIC:v:t=custos ee	!	!	!
0.ryy	.	.	.	4g/	on-	sen-	.	1.r	.	.	.
.	.	.	.	4f/	.	.	.	.	.	.	.
.	.	.	.	4g/	.	.	.	.	.	.	.
.	.	.	.	4e/	.	.	.	.	.	.	.
.	.	.	.	4f/	.	.	.	.	.	.	.
.	.	.	.	4g/	.	.	.	.	.	.	.
!	!	!	!	!LO:LB:g=original	!	!	!	!LO:PB:g=original	!	!	!
.	.	.	.	4f/	.	.	.	2r	.	.	.
.	.	.	.	4e/	.	.	.	.	.	.	.
.	.	.	.	4f/	.	.	.	2r	.	.	.
.	.	.	.	4g/	.	.	.	.	.	.	.
!	!	!	!	!	!	!	!	!LO:TX:t=P:problem:kreska pseudotaktowa	!	!	!
.	.	.	.	4a\	.	.	.	2ff\	nel	i	.
!	!	!	!	!LO:TX:t=P:problem:kreska pseudotaktowa	!	!	!	!	!	!	!
.	.	.	.	4b-\	.	.	.	.	.	.	.
=35-	=35-	=35-	=35-	=35-	=35-	=35-	=35-	=35-	=35-	=35-	=35-
0.ryy	.	.	.	2cc\	-de	.	.	4ee\	on-	sen-	.
.	.	.	.	.	.	.	.	4dd\	.	.	.
.	.	.	.	2a\	.	-si	.	4ee\	.	.	.
.	.	.	.	.	.	.	.	4cc\	.	.	.
!	!	!	!	!LO:TX:t=P:problem:kreska pseudotaktowa	!	!	!	!	!	!	!
.	.	.	.	2a\	le-	i	.	4dd\	.	.	.
!	!	!	!	!	!	!	!	!LO:TX:t=P:problem:kreska pseudotaktowa	!	!	!
.	.	.	.	.	.	.	.	4ee\	.	.	.
.	.	.	.	2a\	-ta-	sen-	.	4dd\	.	.	.
.	.	.	.	.	.	.	.	4cc\	.	.	.
.	.	.	.	2.g/	-li	-si	.	4dd\	.	.	.
.	.	.	.	.	.	.	.	4b-\	.	.	.
.	.	.	.	.	.	.	.	4cc\	.	.	.
!	!	!	!	!LO:TX:t=P:problem:kreska pseudotaktowa	!	!	!	!LO:TX:t=P:problem:kreska pseudotaktowa	!	!	!
.	.	.	.	4g/	nel	i	.	4dd\	.	.	.
=36-	=36-	=36-	=36-	=36-	=36-	=36-	=36-	=36-	=36-	=36-	=36-
0.ryy	.	.	.	2g/	on-	sen-	.	2cc\	.	.	.
.	.	.	.	2f/	-de	-si	.	2cc\	-de	-si	.
!	!	!	!	!LO:TX:t=P:problem:kreska pseudotaktowa	!	!	!	!LO:TX:t=P:problem:kreska pseudotaktowa	!	!	!
.	.	.	.	[2f/	le-	più	.	2cc\	le-	i	.
.	.	.	.	2f/]	.	.	.	4b-\	-ta-	sen-	.
.	.	.	.	.	.	.	.	4a\	.	.	.
.	.	.	.	(2.f/	-ta-	fra-	.	4b-\	.	.	.
.	.	.	.	.	.	.	.	4g\	.	.	.
.	.	.	.	.	.	.	.	4a\	.	.	.
!	!	!	!	!LO:TX:t=P:problem:kreska pseudotaktowa	!	!	!	!LO:TX:t=P:problem:kreska pseudotaktowa	!	!	!
.	.	.	.	4e/)	.	.	.	4b-\	.	.	.
=37-	=37-	=37-	=37-	=37-	=37-	=37-	=37-	=37-	=37-	=37-	=37-
0.ryy	.	.	.	1f	-li	-li	.	2a\	.	.	.
.	.	.	.	.	.	.	.	2a\	-li	-si	.
!	!	!	!	!LO:TX:t=P:problem:kreska pseudotaktowa	!	!	!	!LO:TX:t=P:problem:kreska pseudotaktowa	!	!	!
.	.	.	.	2a\	nel	o	.	2cc\	nel	i	.
.	.	.	.	2b-\	on-	sen-	.	2dd\	on-	sen-	.
.	.	.	.	2g/	-de	-si	.	2b-\	-de	-si	.
!	!	!	!	!LO:TX:t=P:problem:kreska pseudotaktowa	!	!	!	!LO:TX:t=P:problem:kreska pseudotaktowa	!	!	!
.	.	.	.	2f/	le-	più	.	2a\	le-	piu	.
=38-	=38-	=38-	=38-	=38-	=38-	=38-	=38-	=38-	=38-	=38-	=38-
0.ryy	.	.	.	(1f	-ta-	fra-	.	(2a\	-ta-	fra-	.
*	*	*	*	*	*	*	*	*col	*	*	*
.	.	.	.	.	.	.	.	1g)	.	.	.
.	.	.	.	2e/)	.	.	.	.	.	.	.
*	*	*	*	*	*	*	*	*Xcol	*	*	*
!	!	!	!	!LO:PB:g=original	!	!	!	!LO:LB:g=original	!	!	!
.	.	.	.	2f/	-li	-li	.	2a\	-li	-li	.
.	.	.	.	2r	.	.	.	2r	.	.	.
!	!	!	!	!LO:TX:t=P:problem:kreska pseudotaktowa	!	!	!	!	!	!	!
!	!	!	!	!	!	!	!LO:DY:a:t=pian	!LO:TX:t=P:problem:kreska pseudotaktowa	!	!	!LO:DY:a:t=p.
.	.	.	.	2f/	si-	si-	p	2a-X\	si-	si-	p
=39-	=39-	=39-	=39-	=39-	=39-	=39-	=39-	=39-	=39-	=39-	=39-
0.ryy	.	.	.	2f/	-len-	-len-	.	2a-\	-len-	-len-	.
.	.	.	.	2f/	-tio	-tio	.	2a-\	-tio	-tio	.
.	.	.	.	4r	.	.	.	4r	.	.	.
*	*	*	*	*	*ij	*ij	*	*	*	*ij	*
!	!	!	!	!LO:TX:t=P:problem:kreska pseudotaktowa	!	!	!LO:DY:a:t=forte	!LO:TX:t=P:problem:kreska pseudotaktowa	!	!	!LO:DY:a:t=f.
.	.	.	.	4f/	si-	si-	f	4cc\	si-	si-	f
!	!	!	!	!	!	!	!	!LO:N:acc=#	!	!	!
.	.	.	.	2f/	-len-	-len-	.	2bn\	-len-	-len-	.
.	.	.	.	2f/	-tio	-tio	.	2b\	-tio	-tio	.
*	*	*	*	*col	*Xij	*Xij	*	*col*	*	*Xij	*
.	.	.	.	1e-X/	mor-	mor-	.	1cc\	mor-	mor-	.
*	*	*	*	*	*	*	*	*Xcol	*	*	*
=40-	=40-	=40-	=40-	=40-	=40-	=40-	=40-	=40-	=40-	=40-	=40-
0.ryy	.	.	.	.	.	.	.	.	.	.	.
!	!	!	!	!LO:TX:t=P:problem:kreska pseudotaktowa	!	!	!	!	!	!	!
.	.	.	.	1d	-ta-	-ta-	.	2.cc\	-ta-	-ta-	.
!	!	!	!	!	!	!	!	!LO:N:acc=#	!	!	!
!	!	!	!	!	!	!	!	!LO:TX:t=P:problem:# above	!	!	!
!	!	!	!	!	!	!	!	!LO:TX:t=P:problem:kreska pseudotaktowa	!	!	!
.	.	.	.	.	.	.	.	(4bn\	-li	-li	.
*	*	*	*	*Xcol	*	*	*	*	*	*	*
.	.	.	.	2e-/	-li	-le	.	2cc\)	.	.	.
.	.	.	.	2r	.	.	.	2r	.	.	.
!	!	!	!	!LO:TX:t=P:problem:kreska pseudotaktowa	!	!	!LO:DY:a:t=piano	!LO:TX:t=P:problem:kreska pseudotaktowa	!	!	!
.	.	.	.	2e-/	si-	.	p	2g/	si-	.	.
=41-	=41-	=41-	=41-	=41-	=41-	=41-	=41-	=41-	=41-	=41-	=41-
0.ryy	.	.	.	2eny/	-len-	.	.	2b-\	-len-	.	.
.	.	.	.	2e/	-tio	.	.	2b-\	-tio	.	.
.	.	.	.	4r	.	.	.	4r	.	.	.
!	!	!	!	!LO:TX:t=P:problem:kreska pseudotaktowa	!	!	!LO:DY:a:t=piano p&colon;	!LO:TX:t=P:problem:kreska pseudotaktowa	!	!	!
.	.	.	.	4e/	si-	.	p	4a-X\	si-	.	.
.	.	.	.	2f/	-len-	.	.	2a-\	-len-	.	.
.	.	.	.	2f/	-tio	.	.	2a-\	-tio	.	.
.	.	.	.	4r	.	.	.	4r	.	.	.
!	!	!	!	!LO:TX:t=P:problem:kreska pseudotaktowa	!	!	!	!LO:TX:t=P:problem:kreska pseudotaktowa	!	!	!
.	.	.	.	4a\	si-	.	.	4cc\	si-	.	.
=42-	=42-	=42-	=42-	=42-	=42-	=42-	=42-	=42-	=42-	=42-	=42-
0.ryy	.	.	.	2b-\	-len-	.	.	2dd-X\	-len-	.	.
.	.	.	.	2g/	-tio	.	.	2b-\	-tio	.	.
!	!	!	!	!LO:SIC:v:t=custos f	!	!	!	!	!	!	!
*	*	*	*	*	*	*	*	*col*	*	*	*
.	.	.	.	2f/	mor-	.	.	1any	mor-	.	.
!	!	!	!	!LO:LB:g=original	!	!	!	!	!	!	!
.	.	.	.	(1f	-ta-	.	.	.	.	.	.
*	*	*	*	*	*	*	*	*Xcol	*	*	*
.	.	.	.	.	.	.	.	1g	-ta-	.	.
.	.	.	.	2e/)	.	.	.	.	.	.	.
=43-	=43-	=43-	=43-	=43-	=43-	=43-	=43-	=43-	=43-	=43-	=43-
1ryy	.	.	.	1.f	-li	.	.	1.f;	-li	.	.
2ryy	.	.	.	.	.	.	.	.	.	.	.
=:|!-	=:|!-	=:|!-	=:|!-	=:|!-	=:|!-	=:|!-	=:|!-	=:|!-	=:|!-	=:|!-	=:|!-
*-	*-	*-	*-	*-	*-	*-	*-	*-	*-	*-	*-
!!!RDF**kern: > = above
!!!system-decoration: [(s1,s2,s3)]
!!!ENC: Anastazja Marusiak
!!!END: 2022-01-26
!!!AIN: 1 bass 2 soprn
!!!ENC: Urszula Świątek
!!!END: 2022-02-17
